**harm	**harte	**timestamp	**phrase	**leadinstrument	**kern
*M4/4	*M4/4	*	*	*	*
*E:	*E:	*	*	*	*E:
1r;	N	0	.	r	1r;
=1	=1	=1	=1	=1	=1
*>A_verse	*>A_verse	*>A_verse	*>A_verse	*>A_verse	*>A_verse
1I	E:maj	1.07	newline	voice	1E 1g# 1b
=2	=2	=2	=2	=2	=2
1vi	C#:min	3.181	.	voice	1C# 1e 1g#
=3	=3	=3	=3	=3	=3
2IV	A:maj	5.292	.	voice	2A 2cc# 2ee
2V	B:maj	6.348	.	voice	2B 2dd# 2ff#
=4	=4	=4	=4	=4	=4
1I	E:maj	7.403	.	voice	1E 1g# 1b
=5	=5	=5	=5	=5	=5
1I	E:maj	9.514	newline	voice	1E 1g# 1b
=6	=6	=6	=6	=6	=6
1vi	C#:min	11.603	.	voice	1C# 1e 1g#
=7	=7	=7	=7	=7	=7
2IV	A:maj	13.691	.	voice	2A 2cc# 2ee
2V	B:maj	14.735	.	voice	2B 2dd# 2ff#
=8	=8	=8	=8	=8	=8
1I	E:maj	15.779	.	voice	1E 1g# 1b
=9	=9	=9	=9	=9	=9
1IV	A:maj	17.867	newline	voice	1A 1cc# 1ee
=10	=10	=10	=10	=10	=10
1V	B:maj	19.969	.	voice	1B 1dd# 1ff#
=11	=11	=11	=11	=11	=11
1III	G#:maj	22.071	.	voice	1G# 1b# 1dd#
=12	=12	=12	=12	=12	=12
1vi	C#:min	24.174	.	voice	1C# 1e 1g#
=13	=13	=13	=13	=13	=13
1IV	A:maj	26.276	newline	voice	1A 1cc# 1ee
=14	=14	=14	=14	=14	=14
1V	B:maj	28.376	.	voice	1B 1dd# 1ff#
=15	=15	=15	=15	=15	=15
1I	E:maj	30.476	.	voice	1E 1g# 1b
=16	=16	=16	=16	=16	=16
1V	B:maj	32.575	.	voice	1B 1dd# 1ff#
=17	=17	=17	=17	=17	=17
*>A_verse	*>A_verse	*>A_verse	*>A_verse	*>A_verse	*>A_verse
1I	E:maj	34.675	newline	voice	1E 1g# 1b
=18	=18	=18	=18	=18	=18
1vi	C#:min	36.775	.	voice	1C# 1e 1g#
=19	=19	=19	=19	=19	=19
2IV	A:maj	38.874	.	voice	2A 2cc# 2ee
2V	B:maj	39.924	.	voice	2B 2dd# 2ff#
=20	=20	=20	=20	=20	=20
1I	E:maj	40.974	.	voice	1E 1g# 1b
=21	=21	=21	=21	=21	=21
1I	E:maj	43.073	newline	voice	1E 1g# 1b
=22	=22	=22	=22	=22	=22
1vi	C#:min	45.195	.	voice	1C# 1e 1g#
=23	=23	=23	=23	=23	=23
2IV	A:maj	47.316	.	voice	2A 2cc# 2ee
2V	B:maj	48.377	.	voice	2B 2dd# 2ff#
=24	=24	=24	=24	=24	=24
1I	E:maj	49.438	.	voice	1E 1g# 1b
=25	=25	=25	=25	=25	=25
1IV	A:maj	51.56	newline	voice	1A 1cc# 1ee
=26	=26	=26	=26	=26	=26
1V	B:maj	53.666	.	voice	1B 1dd# 1ff#
=27	=27	=27	=27	=27	=27
1III	G#:maj	55.773	.	voice	1G# 1b# 1dd#
=28	=28	=28	=28	=28	=28
1vi	C#:min	57.879	.	voice	1C# 1e 1g#
=29	=29	=29	=29	=29	=29
1IV	A:maj	59.986	newline	voice	1A 1cc# 1ee
=30	=30	=30	=30	=30	=30
1V	B:maj	62.104	.	voice	1B 1dd# 1ff#
=31	=31	=31	=31	=31	=31
1I	E:maj	64.223	.	voice	1E 1g# 1b
=32	=32	=32	=32	=32	=32
1Im7	E:7	66.342	.	voice	1E 1g# 1b 1dd#
=33	=33	=33	=33	=33	=33
*>B_bridge	*>B_bridge	*>B_bridge	*>B_bridge	*>B_bridge	*>B_bridge
1IV	A:maj	68.461	newline	voice	1A 1cc# 1ee
=34	=34	=34	=34	=34	=34
1iii7	G#:min7	70.562	.	voice	1G# 1b 1dd# 1ff#
=35	=35	=35	=35	=35	=35
1IV	A:maj	72.664	.	voice	1A 1cc# 1ee
=36	=36	=36	=36	=36	=36
2I	E:maj	74.765	.	voice	2E 2g# 2b
2Im7	E:7	75.815	.	voice	2E 2g# 2b 2dd#
=37	=37	=37	=37	=37	=37
1IV	A:maj	76.866	newline	voice	1A 1cc# 1ee
=38	=38	=38	=38	=38	=38
1iii7	G#:min7	78.996	.	voice	1G# 1b 1dd# 1ff#
=39	=39	=39	=39	=39	=39
1II7	F#:7	81.125	.	voice	1F# 1a# 1cc# 1ee
=40	=40	=40	=40	=40	=40
1V	B:maj	83.255	.	voice	1B 1dd# 1ff#
=41	=41	=41	=41	=41	=41
4V	B:maj	85.385	.	voice	4B 4dd# 4ff#
4IV	A:maj	85.917	.	voice	4A 4cc# 4ee
4iii	G#:min	86.45	.	voice	4G# 4b 4dd#
4ii	F#:min	86.982	.	voice	4F# 4a 4cc#
=42	=42	=42	=42	=42	=42
*>A2_verse	*>A2_verse	*>A2_verse	*>A2_verse	*>A2_verse	*>A2_verse
1I	E:maj	87.515	newline	voice	1E 1g# 1b
=43	=43	=43	=43	=43	=43
1vi	C#:min	89.633	.	voice	1C# 1e 1g#
=44	=44	=44	=44	=44	=44
2IV	A:maj	91.751	.	voice	2A 2cc# 2ee
2V	B:maj	92.81	.	voice	2B 2dd# 2ff#
=45	=45	=45	=45	=45	=45
1I	E:maj	93.869	.	voice	1E 1g# 1b
=46	=46	=46	=46	=46	=46
1I	E:maj	95.987	newline	voice	1E 1g# 1b
=47	=47	=47	=47	=47	=47
1vi	C#:min	98.09	.	voice	1C# 1e 1g#
=48	=48	=48	=48	=48	=48
2IV	A:maj	100.194	.	voice	2A 2cc# 2ee
2V	B:maj	101.246	.	voice	2B 2dd# 2ff#
=49	=49	=49	=49	=49	=49
1I	E:maj	102.298	.	voice	1E 1g# 1b
=50	=50	=50	=50	=50	=50
1IV	A:maj	104.402	newline	voice	1A 1cc# 1ee
=51	=51	=51	=51	=51	=51
1V	B:maj	106.534	.	voice	1B 1dd# 1ff#
=52	=52	=52	=52	=52	=52
1III	G#:maj	108.666	.	voice	1G# 1b# 1dd#
=53	=53	=53	=53	=53	=53
1vi	C#:min	110.798	.	voice	1C# 1e 1g#
=54	=54	=54	=54	=54	=54
1IV	A:maj	112.93	newline	voice	1A 1cc# 1ee
=55	=55	=55	=55	=55	=55
1V	B:maj	115.039	.	voice	1B 1dd# 1ff#
=56	=56	=56	=56	=56	=56
1I	E:maj	117.148	.	voice	1E 1g# 1b
=57	=57	=57	=57	=57	=57
1Im7	E:7	119.257	.	voice	1E 1g# 1b 1dd#
=58	=58	=58	=58	=58	=58
1IV	A:maj	121.366	newline	voice	1A 1cc# 1ee
=59	=59	=59	=59	=59	=59
1V	B:maj	123.525	.	voice	1B 1dd# 1ff#
=60	=60	=60	=60	=60	=60
1I	E:maj	125.685	->newline	voice	1E 1g# 1b
=61	=61	=61	=61	=61	=61
1vi	C#:min	127.873	.	voice	1C# 1e 1g#
=62	=62	=62	=62	=62	=62
1I	E:maj	130.06	.	voice	1E 1g# 1b
=63	=63	=63	=63	=63	=63
1I	E:maj	132.248	.	voice	1E 1g# 1b
1r;	N	135.256	.	r	1r;
1r;	N	138.24	.	r	1r;
*-	*-	*-	*-	*-	*-
!!!OTL: I Rise, I Fall
!!!COC: Johnny Tillotson
!!!BillboardChartDate: 1964/06/20
!!!BillboardPeak: 36
!!!BillboardWeeksOnChart: 8
!!!SampleTargetRank: 44
!!!SampleActualRank: 42
!!!SampleID#: 0355
!!!RDF**harmony: **recip + pitch class of root + harmonic quality
!!!RDF**harte: Chris Harte's syntax, used by MIREX
!!!RDF**phrase: newline = linebreak in original McGill transcription
!!!RDF**timestamp: McGill audio timestamp in seconds
!!!RDF**leadinstrument: original McGill primary instrumentation annotation
!!!RDT: 2017/01/12/
!!!ENC: Nathaniel Condit-Schultz
!!!EST: Awating manual error checking and editing.
